X: 31
T:Confess
K:G
M:6/8
E2 F G2 A| B2 B B2 B| c3 B2 B| e3 ^d3| E2 F G2 A| B2 B B2 B| c3 B2 B| e3 ^d3:|
|: f2 d g2 e|f d2 B2 c|d B2 A2 B|B A2 B3|G2 A B>cB|c B2 A3|G2 e ^d2 e |f ^d2 e3:|

